icons/code-box-alt.svg

<svg width="24" height="24" viewBox="0 0 24 24" fill="none" xmlns="http://www.w3.org/2000/svg">
<path fill-rule="evenodd" clip-rule="evenodd" d="M17.0827 6.05133C18.9755 5.96903 20.4001 7.34825 20.4001 9.10208V14.9021C20.4001 16.5391 18.9863 17.9521 17.0501 17.9521H6.9501C5.10155 17.9521 3.6001 16.5278 3.6001 14.9021V9.10208C3.6001 7.46501 5.01387 6.05203 6.9501 6.05203H17.0664L17.0827 6.05133ZM21.9001 9.10208C21.9001 6.46143 19.7338 4.44346 17.0344 4.55203H6.9501C4.28634 4.55203 2.1001 6.53916 2.1001 9.10208V14.9021C2.1001 17.4764 4.39866 19.4521 6.9501 19.4521H17.0501C19.7138 19.4521 21.9001 17.465 21.9001 14.9021V9.10208ZM6.50012 10.1021C6.50012 9.41633 7.06434 8.85211 7.75012 8.85211H10.4501C11.1359 8.85211 11.7001 9.41633 11.7001 10.1021V13.8021C11.7001 14.4878 11.1359 15.0521 10.4501 15.0521H7.75012C7.06434 15.0521 6.50012 14.4878 6.50012 13.8021V10.1021ZM7.75012 7.35211C6.23591 7.35211 5.00012 8.5879 5.00012 10.1021V13.8021C5.00012 15.3163 6.23591 16.5521 7.75012 16.5521H10.4501C11.9643 16.5521 13.2001 15.3163 13.2001 13.8021V10.1021C13.2001 8.5879 11.9643 7.35211 10.4501 7.35211H7.75012ZM14.9197 12.5718C15.2126 12.2789 15.6875 12.2789 15.9804 12.5718L16.8001 13.3914L17.6197 12.5718C17.9126 12.2789 18.3875 12.2789 18.6804 12.5718C18.9733 12.8647 18.9733 13.3395 18.6804 13.6324L17.6804 14.6324C17.1875 15.1253 16.4126 15.1253 15.9197 14.6324L14.9197 13.6324C14.6269 13.3395 14.6269 12.8647 14.9197 12.5718ZM17.5197 10.9324L16.7001 10.1127L15.8804 10.9324C15.5875 11.2253 15.1127 11.2253 14.8198 10.9324C14.5269 10.6395 14.5269 10.1646 14.8198 9.87175L15.8198 8.87175C16.3127 8.37885 17.0875 8.37885 17.5804 8.87175L18.5804 9.87175C18.8733 10.1646 18.8733 10.6395 18.5804 10.9324C18.2875 11.2253 17.8126 11.2253 17.5197 10.9324Z" fill="black"/>
</svg>

<svg xmlns="http://www.w3.org/2000/svg" fill="none" viewBox="0 0 24 24">
  <path fill="#000" fill-rule="evenodd" d="M17.083 6.051C18.976 5.97 20.4 7.348 20.4 9.102v5.8c0 1.637-1.414 3.05-3.35 3.05H6.95c-1.848 0-3.35-1.424-3.35-3.05v-5.8c0-1.637 1.414-3.05 3.35-3.05h10.133ZM21.9 9.102c0-2.64-2.166-4.659-4.866-4.55H6.95c-2.664 0-4.85 1.987-4.85 4.55v5.8c0 2.574 2.299 4.55 4.85 4.55h10.1c2.664 0 4.85-1.987 4.85-4.55v-5.8Zm-15.4 1c0-.686.564-1.25 1.25-1.25h2.7c.686 0 1.25.564 1.25 1.25v3.7c0 .686-.564 1.25-1.25 1.25h-2.7c-.686 0-1.25-.564-1.25-1.25v-3.7Zm1.25-2.75A2.756 2.756 0 0 0 5 10.102v3.7a2.756 2.756 0 0 0 2.75 2.75h2.7a2.756 2.756 0 0 0 2.75-2.75v-3.7a2.756 2.756 0 0 0-2.75-2.75h-2.7Zm7.17 5.22a.75.75 0 0 1 1.06 0l.82.82.82-.82a.75.75 0 0 1 1.06 1.06l-1 1a1.233 1.233 0 0 1-1.76 0l-1-1a.75.75 0 0 1 0-1.06Zm2.6-1.64-.82-.82-.82.82a.75.75 0 1 1-1.06-1.06l1-1a1.233 1.233 0 0 1 1.76 0l1 1a.75.75 0 1 1-1.06 1.06Z" clip-rule="evenodd"/>
</svg>
